svg/24/expand-square--filled.svg

<svg width="24" height="24" viewBox="0 0 24 24" fill="currentColor" xmlns="http://www.w3.org/2000/svg"><path fill-rule="evenodd" clip-rule="evenodd" d="M5 3C3.89543 3 3 3.89543 3 5V19C3 20.1046 3.89543 21 5 21H19C20.1046 21 21 20.1046 21 19V5C21 3.89543 20.1046 3 19 3H5ZM11.75 7C11.3358 7 11 7.33579 11 7.75C11 8.16421 11.3358 8.5 11.75 8.5H14.4393L8.5 14.4393L8.5 11.75C8.5 11.3358 8.16421 11 7.75 11C7.33579 11 7 11.3358 7 11.75L7 16.25C7 16.6642 7.33579 17 7.75 17H12.25C12.6642 17 13 16.6642 13 16.25C13 15.8358 12.6642 15.5 12.25 15.5H9.56066L15.5 9.56066V12.25C15.5 12.6642 15.8358 13 16.25 13C16.6642 13 17 12.6642 17 12.25V7.75C17 7.33579 16.6642 7 16.25 7H11.75Z"/></svg>

<svg xmlns="http://www.w3.org/2000/svg" width="24" height="24" fill="currentColor" viewBox="0 0 24 24">
  <path fill-rule="evenodd" d="M5 3a2 2 0 0 0-2 2v14a2 2 0 0 0 2 2h14a2 2 0 0 0 2-2V5a2 2 0 0 0-2-2H5Zm6.75 4a.75.75 0 0 0 0 1.5h2.69L8.5 14.44v-2.69a.75.75 0 0 0-1.5 0v4.5c0 .414.336.75.75.75h4.5a.75.75 0 0 0 0-1.5H9.56l5.94-5.94v2.69a.75.75 0 0 0 1.5 0v-4.5a.75.75 0 0 0-.75-.75h-4.5Z" clip-rule="evenodd"/>
</svg>
